svgs/light/shop.svg

<svg xmlns="http://www.w3.org/2000/svg" viewBox="0 0 640 512"><!--! Font Awesome Pro 6.3.0 by @fontawesome - https://fontawesome.com License - https://fontawesome.com/license (Commercial License) Copyright 2023 Fonticons, Inc. --><path d="M.0003 185.8C.0003 179.4 1.606 173.1 4.67 167.4L82.36 25.02C90.77 9.595 106.9 0 124.5 0H515.5C533.1 0 549.2 9.595 557.6 25.02L635.3 167.4C638.4 173.1 640 179.4 640 185.8C640 206.9 622.9 224 601.8 224H576V496C576 504.8 568.8 512 560 512C551.2 512 544 504.8 544 496V224H96V352H352V272C352 263.2 359.2 256 368 256C376.8 256 384 263.2 384 272V464C384 490.5 362.5 512 336 512H112C85.49 512 64 490.5 64 464V224H38.25C17.12 224 0 206.9 0 185.8H.0003zM601.8 192C605.2 192 608 189.2 608 185.8C608 184.7 607.7 183.7 607.2 182.8L529.6 40.34C526.7 35.2 521.4 32 515.5 32H124.5C118.6 32 113.3 35.2 110.4 40.34L32.76 182.8C32.26 183.7 32 184.7 32 185.8C32 189.2 34.8 192 38.25 192H601.8zM112 480H336C344.8 480 352 472.8 352 464V384H96V464C96 472.8 103.2 480 112 480V480z"/></svg>

<svg xmlns="http://www.w3.org/2000/svg" viewBox="0 0 640 512"><!--! Font Awesome Pro 6.4.0 by @fontawesome - https://fontawesome.com License - https://fontawesome.com/license (Commercial License) Copyright 2023 Fonticons, Inc. --><path d="M0 185.8c0-6.4 1.6-12.7 4.7-18.3L82.4 25C90.8 9.6 106.9 0 124.5 0h391c17.6 0 33.7 9.6 42.1 25l77.7 142.4c3.1 5.6 4.7 11.9 4.7 18.3c0 21.1-17.1 38.2-38.2 38.2H576V496c0 8.8-7.2 16-16 16s-16-7.2-16-16V224H96V352H352V272 256h32v16V464c0 26.5-21.5 48-48 48H112c-26.5 0-48-21.5-48-48V224H38.2C17.1 224 0 206.9 0 185.8zM80 192H560h41.8c3.4 0 6.2-2.8 6.2-6.2c0-1-.3-2.1-.8-3L529.6 40.3c-2.8-5.1-8.2-8.3-14-8.3h-391c-5.9 0-11.2 3.2-14 8.3L32.8 182.8c-.5 .9-.8 1.9-.8 3c0 3.4 2.8 6.2 6.2 6.2H80zM96 464c0 8.8 7.2 16 16 16H336c8.8 0 16-7.2 16-16V384H96v80z"/></svg>
